third_party/noto/noto_2/emoji_u1f3e7.svg

<svg enable-background="new 0 0 128 128" version="1.1" viewBox="0 0 128 128" xmlns="http://www.w3.org/2000/svg"><path d="m116 4h-104c-4.42 0-8 3.58-8 8v104c0 4.42 3.58 8 8 8h104c4.42 0 8-3.58 8-8v-104c0-4.42-3.58-8-8-8z" fill="#194FA5"/><path d="m109.7 4h-98.2c-4.13 0.03-7.47 3.37-7.5 7.5v97.9c-0.01 4.14 3.34 7.49 7.48 7.5h0.02 98.1c4.14 0.01 7.49-3.34 7.5-7.48v-0.02-97.9c0.09-4.05-3.13-7.41-7.18-7.5h-0.22z" fill="#2262DD"/><rect x="4" y="36" width="120" height="56" fill="#0A3880"/><g fill="#FAFAFA"><path d="m21.09 45.03h8.21l14.26 37.95h-7.9l-3.18-9.06h-14.52l-3.18 9.06h-7.9l14.21-37.95zm9.06 22.31-3.34-9.54-1.38-4.56h-0.42l-1.38 4.56-3.39 9.54h9.91z"/><path d="M50.57,51.81h-10.6v-6.78h28.36v6.78h-10.6v31.16h-7.15V51.81z"/><path d="m74.05 45.03h9.22l10.07 26.66h0.42l10.07-26.66h9.28v37.95h-7.1v-18.71l0.42-6.31h-0.42l-9.65 25.02h-5.56l-9.7-25.02h-0.42l0.42 6.31v18.71h-7.05v-37.95z"/></g><rect x="117.1" y="36" width="6.9" height="56" fill="#092C56"/><path d="m39.7 12.9c0-2.3-1.6-3-10.8-2.7-7.7 0.3-11.5 1.2-13.8 4-1.9 2.3-2.3 5.6-2.6 8.4-0.2 2.2-2.2 14.9 3.5 11.2 0.68-0.45 1.23-1.07 1.6-1.8 1.2-2.1 1.9-3.5 3.3-5.6 5.3-8.6 18.8-10.5 18.8-13.5z" enable-background="new" fill="#fff" opacity=".3"/></svg>

<?xml version="1.0" encoding="utf-8"?>
<!-- Generator: Adobe Illustrator 25.2.3, SVG Export Plug-In . SVG Version: 6.00 Build 0)  -->
<svg version="1.1" id="Layer_2" xmlns="http://www.w3.org/2000/svg" xmlns:xlink="http://www.w3.org/1999/xlink" x="0px" y="0px"
	 viewBox="0 0 128 128" style="enable-background:new 0 0 128 128;" xml:space="preserve">
<path style="fill:#194FA5;" d="M116,4H12c-4.42,0-8,3.58-8,8v104c0,4.42,3.58,8,8,8h104c4.42,0,8-3.58,8-8V12
	C124,7.58,120.42,4,116,4z"/>
<path style="fill:#2262DD;" d="M109.7,4H11.5C7.37,4.03,4.03,7.37,4,11.5v97.9c-0.01,4.14,3.34,7.49,7.48,7.5c0.01,0,0.01,0,0.02,0
	h98.1c4.14,0.01,7.49-3.34,7.5-7.48c0-0.01,0-0.01,0-0.02V11.5c0.09-4.05-3.13-7.41-7.18-7.5C109.85,4,109.77,4,109.7,4z"/>
<g>
	<rect x="4" y="36" style="fill:#0A3880;" width="120" height="56"/>
	<g>
		<path style="fill:#FAFAFA;" d="M21.09,45.03h8.21l14.26,37.95h-7.9l-3.18-9.06H17.96l-3.18,9.06h-7.9L21.09,45.03z M30.15,67.34
			l-3.34-9.54l-1.38-4.56h-0.42l-1.38,4.56l-3.39,9.54H30.15z"/>
		<path style="fill:#FAFAFA;" d="M50.57,51.81h-10.6v-6.78h28.36v6.78h-10.6v31.16h-7.15V51.81z"/>
		<path style="fill:#FAFAFA;" d="M74.05,45.03h9.22l10.07,26.66h0.42l10.07-26.66h9.28v37.95h-7.1V64.27l0.42-6.31h-0.42
			l-9.65,25.02H90.8l-9.7-25.02h-0.42l0.42,6.31v18.71h-7.05V45.03z"/>
	</g>
</g>
<rect x="117.1" y="36" style="fill:#092C56;" width="6.9" height="56"/>
<path style="opacity:0.3;fill:#FFFFFF;enable-background:new    ;" d="M39.7,12.9c0-2.3-1.6-3-10.8-2.7c-7.7,0.3-11.5,1.2-13.8,4
	c-1.9,2.3-2.3,5.6-2.6,8.4c-0.2,2.2-2.2,14.9,3.5,11.2c0.68-0.45,1.23-1.07,1.6-1.8c1.2-2.1,1.9-3.5,3.3-5.6
	C26.2,17.8,39.7,15.9,39.7,12.9z"/>
</svg>
